Newaita-dark/actions/24/draw-halfcircle1.svg

<svg height="24" viewBox="0 0 24 24" width="24" xmlns="http://www.w3.org/2000/svg"><g fill="#e0e0e0"><path d="m11.90625 3.164062c-4.945312 0-8.929688 3.984376-8.929688 8.929688 0 4.949219 3.984376 8.933594 8.929688 8.933594v-1.988282c-3.847656 0-6.945312-3.097656-6.945312-6.945312s3.097656-6.945312 6.945312-6.945312zm0 0"/><path d="m11.90625 3.164062c.550781 0 .992188.445313.992188.992188v15.875c0 .550781-.441407.996094-.992188.996094-.546875 0-.992188-.445313-.992188-.996094v-15.875c0-.546875.445313-.992188.992188-.992188zm0 0"/></g></svg>

<?xml version="1.0" encoding="UTF-8"?>
<svg xmlns="http://www.w3.org/2000/svg" xmlns:xlink="http://www.w3.org/1999/xlink" width="24px" height="24px" viewBox="0 0 24 24" version="1.1">
<g id="surface1">
<path style=" stroke:none;fill-rule:nonzero;fill:rgb(87.843138%,87.843138%,87.843138%);fill-opacity:1;" d="M 11.90625 3.164062 C 6.960938 3.164062 2.976562 7.148438 2.976562 12.09375 C 2.976562 17.042969 6.960938 21.027344 11.90625 21.027344 L 11.90625 19.039062 C 8.058594 19.039062 4.960938 15.941406 4.960938 12.09375 C 4.960938 8.246094 8.058594 5.148438 11.90625 5.148438 Z M 11.90625 3.164062 "/>
<path style=" stroke:none;fill-rule:nonzero;fill:rgb(87.843138%,87.843138%,87.843138%);fill-opacity:1;" d="M 11.90625 3.164062 C 12.457031 3.164062 12.898438 3.609375 12.898438 4.15625 L 12.898438 20.03125 C 12.898438 20.582031 12.457031 21.027344 11.90625 21.027344 C 11.359375 21.027344 10.914062 20.582031 10.914062 20.03125 L 10.914062 4.15625 C 10.914062 3.609375 11.359375 3.164062 11.90625 3.164062 Z M 11.90625 3.164062 "/>
</g>
</svg>
